src/assets/image-icon.svg

<svg width="30" height="30" viewBox="0 0 30 30" fill="none" xmlns="http://www.w3.org/2000/svg">
<path d="M25.5 0H4.5C3.30653 0 2.16193 0.474106 1.31802 1.31802C0.474106 2.16193 0 3.30653 0 4.5V25.5C0 26.6935 0.474106 27.8381 1.31802 28.682C2.16193 29.5259 3.30653 30 4.5 30H25.5C25.7467 29.9966 25.9927 29.9715 26.235 29.925L26.685 29.82H26.79H26.865L27.42 29.61L27.615 29.505C27.765 29.415 27.93 29.34 28.08 29.235C28.2803 29.0876 28.4707 28.9273 28.65 28.755L28.755 28.62C28.9023 28.4708 29.0377 28.3103 29.16 28.14L29.295 27.945C29.3998 27.778 29.4901 27.6024 29.565 27.42C29.6062 27.348 29.6413 27.2728 29.67 27.195C29.745 27.015 29.79 26.82 29.85 26.625V26.4C29.935 26.1069 29.9854 25.8048 30 25.5V4.5C30 3.30653 29.5259 2.16193 28.682 1.31802C27.8381 0.474106 26.6935 0 25.5 0ZM4.5 27C4.10218 27 3.72064 26.842 3.43934 26.5607C3.15804 26.2794 3 25.8978 3 25.5V19.035L7.935 14.085C8.07444 13.9444 8.24035 13.8328 8.42313 13.7567C8.60592 13.6805 8.80198 13.6413 9 13.6413C9.19802 13.6413 9.39408 13.6805 9.57687 13.7567C9.75965 13.8328 9.92556 13.9444 10.065 14.085L22.965 27H4.5ZM27 25.5C26.9986 25.6849 26.963 25.868 26.895 26.04C26.8607 26.1131 26.8206 26.1833 26.775 26.25C26.7349 26.3135 26.6897 26.3737 26.64 26.43L18.615 18.405L19.935 17.085C20.0744 16.9444 20.2403 16.8328 20.4231 16.7567C20.6059 16.6805 20.802 16.6413 21 16.6413C21.198 16.6413 21.3941 16.6805 21.5769 16.7567C21.7597 16.8328 21.9256 16.9444 22.065 17.085L27 22.035V25.5ZM27 17.79L24.18 15C23.3216 14.1855 22.1833 13.7314 21 13.7314C19.8167 13.7314 18.6784 14.1855 17.82 15L16.5 16.32L12.18 12C11.3216 11.1855 10.1833 10.7314 9 10.7314C7.81665 10.7314 6.67842 11.1855 5.82 12L3 14.79V4.5C3 4.10218 3.15804 3.72064 3.43934 3.43934C3.72064 3.15804 4.10218 3 4.5 3H25.5C25.8978 3 26.2794 3.15804 26.5607 3.43934C26.842 3.72064 27 4.10218 27 4.5V17.79Z" fill="#3E3E3E"/>
</svg>

<svg width="30" height="30" fill="none" xmlns="http://www.w3.org/2000/svg"><path d="M25.5 0h-21A4.5 4.5 0 000 4.5v21A4.5 4.5 0 004.5 30h21c.247-.003.493-.029.735-.075l.45-.105h.18l.555-.21.195-.105c.15-.09.315-.165.465-.27.2-.147.39-.308.57-.48l.105-.135c.147-.15.283-.31.405-.48l.135-.195a3.46 3.46 0 00.27-.525c.041-.072.076-.147.105-.225.075-.18.12-.375.18-.57V26.4a3.92 3.92 0 00.15-.9v-21A4.5 4.5 0 0025.5 0zm-21 27A1.5 1.5 0 013 25.5v-6.465l4.935-4.95a1.499 1.499 0 012.13 0L22.965 27H4.5zM27 25.5a1.5 1.5 0 01-.105.54 1.504 1.504 0 01-.12.21 1.32 1.32 0 01-.135.18l-8.025-8.025 1.32-1.32a1.498 1.498 0 012.13 0L27 22.035V25.5zm0-7.71L24.18 15a4.62 4.62 0 00-6.36 0l-1.32 1.32L12.18 12a4.62 4.62 0 00-6.36 0L3 14.79V4.5A1.5 1.5 0 014.5 3h21A1.5 1.5 0 0127 4.5v13.29z" fill="#3E3E3E"/></svg>
